img/hello/phone-call.svg

<svg width="21" height="21" viewBox="0 0 21 21" fill="none" xmlns="http://www.w3.org/2000/svg">
<path d="M19.3421 13.8269C18.0467 13.8269 16.7779 13.6246 15.5754 13.2278C14.9885 13.0255 14.322 13.1814 13.9363 13.5749L11.5522 15.3753C8.81669 13.9153 7.06595 12.1656 5.62581 9.45001L7.37764 7.12232C7.81864 6.68132 7.97671 6.03583 7.78771 5.43127C7.38758 4.221 7.18423 2.95105 7.18423 1.6579C7.18423 0.743825 6.44041 0 5.52634 0H1.6579C0.743825 0 0 0.743825 0 1.6579C0 12.3226 8.67743 21 19.3421 21C20.2562 21 21 20.2562 21 19.3421V15.4847C21 14.5707 20.2562 13.8269 19.3421 13.8269Z" fill="#25394E"/>
</svg>

<svg width="21" height="21" fill="none" xmlns="http://www.w3.org/2000/svg"><path d="M19.342 13.827c-1.295 0-2.564-.202-3.767-.6-.586-.202-1.253-.046-1.639.348l-2.384 1.8c-2.735-1.46-4.486-3.21-5.926-5.925l1.752-2.328c.44-.44.599-1.086.41-1.69a12 12 0 01-.604-3.774A1.66 1.66 0 005.526 0H1.658A1.66 1.66 0 000 1.658C0 12.323 8.677 21 19.342 21A1.66 1.66 0 0021 19.342v-3.857a1.66 1.66 0 00-1.658-1.658z" fill="#25394E"/></svg>
